static/img/kroki/16d3e32a1e1a0b0d931b91616799f43e.svg

<?xml version="1.0" encoding="us-ascii" standalone="no"?><svg xmlns="http://www.w3.org/2000/svg" xmlns:xlink="http://www.w3.org/1999/xlink" contentStyleType="text/css" height="1111px" preserveAspectRatio="none" style="width:405px;height:1111px;" version="1.1" viewBox="0 0 405 1111" width="405px" zoomAndPan="magnify"><defs/><g><!--class azure_sku--><g id="elem_azure_sku"><rect codeLine="23" fill="#3D176E" height="179.2734" id="azure_sku" rx="2.5" ry="2.5" style="stroke:#000D19;stroke-width:0.5;" width="131" x="137" y="925.71"/><ellipse cx="154.25" cy="945.6045" fill="#ADD1B2" rx="11" ry="11" style="stroke:#181818;stroke-width:1.0;"/><path d="M157.2188,951.2452 Q156.6406,951.542 156,951.6827 Q155.3594,951.8389 154.6563,951.8389 Q152.1563,951.8389 150.8281,950.1983 Q149.5156,948.542 149.5156,945.417 Q149.5156,942.292 150.8281,940.6358 Q152.1563,938.9795 154.6563,938.9795 Q155.3594,938.9795 156,939.1358 Q156.6563,939.292 157.2188,939.5889 L157.2188,942.3077 Q156.5938,941.7295 156,941.4639 Q155.4063,941.1827 154.7813,941.1827 Q153.4375,941.1827 152.75,942.2608 Q152.0625,943.3233 152.0625,945.417 Q152.0625,947.5108 152.75,948.5889 Q153.4375,949.6514 154.7813,949.6514 Q155.4063,949.6514 156,949.3858 Q156.5938,949.1045 157.2188,948.5264 L157.2188,951.2452 Z " fill="#000000"/><text fill="#D9B8FF" font-family="Helvetica" font-size="17" lengthAdjust="spacing" textLength="84" x="173.75" y="951.4898">azure_sku</text><line style="stroke:#000D19;stroke-width:0.5;" x1="138" x2="267" y1="965.4991" y2="965.4991"/><text fill="#D9B8FF" font-family="sans-serif" font-size="14" font-weight="bold" lengthAdjust="spacing" textLength="65" x="148" y="987.4942">capacity</text><text fill="#D9B8FF" font-family="sans-serif" font-size="14" lengthAdjust="spacing" textLength="44" x="213" y="987.4942">: int64</text><text fill="#D9B8FF" font-family="sans-serif" font-size="14" font-weight="bold" lengthAdjust="spacing" textLength="46" x="148" y="1013.7911">family</text><text fill="#D9B8FF" font-family="sans-serif" font-size="14" lengthAdjust="spacing" textLength="48" x="194" y="1013.7911">: string</text><text fill="#D9B8FF" font-family="sans-serif" font-size="14" font-weight="bold" lengthAdjust="spacing" textLength="43" x="148" y="1040.0879">name</text><text fill="#D9B8FF" font-family="sans-serif" font-size="14" lengthAdjust="spacing" textLength="48" x="191" y="1040.0879">: string</text><text fill="#D9B8FF" font-family="sans-serif" font-size="14" font-weight="bold" lengthAdjust="spacing" textLength="32" x="148" y="1066.3848">size</text><text fill="#D9B8FF" font-family="sans-serif" font-size="14" lengthAdjust="spacing" textLength="48" x="180" y="1066.3848">: string</text><text fill="#D9B8FF" font-family="sans-serif" font-size="14" font-weight="bold" lengthAdjust="spacing" textLength="27" x="148" y="1092.6817">tier</text><text fill="#D9B8FF" font-family="sans-serif" font-size="14" lengthAdjust="spacing" textLength="48" x="175" y="1092.6817">: string</text></g><!--class azure_sql_server_managed_instance_pool--><g id="elem_azure_sql_server_managed_instance_pool"><rect codeLine="30" fill="#3D176E" height="205.5703" id="azure_sql_server_managed_instance_pool" rx="2.5" ry="2.5" style="stroke:#000D19;stroke-width:0.5;" width="391" x="7" y="660.14"/><ellipse cx="22" cy="680.0345" fill="#ADD1B2" rx="11" ry="11" style="stroke:#181818;stroke-width:1.0;"/><path d="M24.9688,685.6752 Q24.3906,685.972 23.75,686.1127 Q23.1094,686.2689 22.4063,686.2689 Q19.9063,686.2689 18.5781,684.6283 Q17.2656,682.972 17.2656,679.847 Q17.2656,676.722 18.5781,675.0658 Q19.9063,673.4095 22.4063,673.4095 Q23.1094,673.4095 23.75,673.5658 Q24.4063,673.722 24.9688,674.0189 L24.9688,676.7377 Q24.3438,676.1595 23.75,675.8939 Q23.1563,675.6127 22.5313,675.6127 Q21.1875,675.6127 20.5,676.6908 Q19.8125,677.7533 19.8125,679.847 Q19.8125,681.9408 20.5,683.0189 Q21.1875,684.0814 22.5313,684.0814 Q23.1563,684.0814 23.75,683.8158 Q24.3438,683.5345 24.9688,682.9564 L24.9688,685.6752 Z " fill="#000000"/><text fill="#D9B8FF" font-family="Helvetica" font-size="17" lengthAdjust="spacing" textLength="349" x="41" y="685.9198">azure_sql_server_managed_instance_pool</text><line style="stroke:#000D19;stroke-width:0.5;" x1="8" x2="397" y1="699.9291" y2="699.9291"/><text fill="#D9B8FF" font-family="sans-serif" font-size="14" font-weight="bold" lengthAdjust="spacing" textLength="143" x="18" y="721.9242">instance_pool_sku</text><text fill="#D9B8FF" font-family="sans-serif" font-size="14" lengthAdjust="spacing" textLength="80" x="161" y="721.9242">: azure_sku</text><text fill="#D9B8FF" font-family="sans-serif" font-size="14" font-weight="bold" lengthAdjust="spacing" textLength="98" x="18" y="748.2211">license_type</text><text fill="#D9B8FF" font-family="sans-serif" font-size="14" lengthAdjust="spacing" textLength="48" x="116" y="748.2211">: string</text><text fill="#D9B8FF" font-family="sans-serif" font-size="14" font-weight="bold" lengthAdjust="spacing" textLength="62" x="18" y="774.5179">location</text><text fill="#D9B8FF" font-family="sans-serif" font-size="14" lengthAdjust="spacing" textLength="48" x="80" y="774.5179">: string</text><text fill="#D9B8FF" font-family="sans-serif" font-size="14" font-weight="bold" lengthAdjust="spacing" textLength="76" x="18" y="800.8148">subnet_id</text><text fill="#D9B8FF" font-family="sans-serif" font-size="14" lengthAdjust="spacing" textLength="48" x="94" y="800.8148">: string</text><text fill="#D9B8FF" font-family="sans-serif" font-size="14" font-weight="bold" lengthAdjust="spacing" textLength="35" x="18" y="827.1117">type</text><text fill="#D9B8FF" font-family="sans-serif" font-size="14" lengthAdjust="spacing" textLength="48" x="53" y="827.1117">: string</text><text fill="#D9B8FF" font-family="sans-serif" font-size="14" font-weight="bold" lengthAdjust="spacing" textLength="61" x="18" y="853.4086">v_cores</text><text fill="#D9B8FF" font-family="sans-serif" font-size="14" lengthAdjust="spacing" textLength="44" x="79" y="853.4086">: int64</text></g><!--class microsoft_resource--><g id="elem_microsoft_resource"><rect codeLine="38" fill="#3D176E" height="100.3828" id="microsoft_resource" rx="2.5" ry="2.5" style="stroke:#000D19;stroke-width:0.5;" width="214" x="95.5" y="438.75"/><ellipse cx="116.8" cy="458.6445" fill="#ADD1B2" rx="11" ry="11" style="stroke:#181818;stroke-width:1.0;"/><path d="M119.7688,464.2852 Q119.1906,464.582 118.55,464.7227 Q117.9094,464.8789 117.2063,464.8789 Q114.7063,464.8789 113.3781,463.2383 Q112.0656,461.582 112.0656,458.457 Q112.0656,455.332 113.3781,453.6758 Q114.7063,452.0195 117.2063,452.0195 Q117.9094,452.0195 118.55,452.1758 Q119.2063,452.332 119.7688,452.6289 L119.7688,455.3477 Q119.1438,454.7695 118.55,454.5039 Q117.9563,454.2227 117.3313,454.2227 Q115.9875,454.2227 115.3,455.3008 Q114.6125,456.3633 114.6125,458.457 Q114.6125,460.5508 115.3,461.6289 Q115.9875,462.6914 117.3313,462.6914 Q117.9563,462.6914 118.55,462.4258 Q119.1438,462.1445 119.7688,461.5664 L119.7688,464.2852 Z " fill="#000000"/><text fill="#D9B8FF" font-family="Helvetica" font-size="17" lengthAdjust="spacing" textLength="158" x="137.2" y="464.5298">microsoft_resource</text><line style="stroke:#000D19;stroke-width:0.5;" x1="96.5" x2="308.5" y1="478.5391" y2="478.5391"/><text fill="#D9B8FF" font-family="sans-serif" font-size="14" font-weight="bold" lengthAdjust="spacing" textLength="35" x="106.5" y="500.5342">etag</text><text fill="#D9B8FF" font-family="sans-serif" font-size="14" lengthAdjust="spacing" textLength="48" x="141.5" y="500.5342">: string</text><text fill="#D9B8FF" font-family="sans-serif" font-size="14" font-weight="bold" lengthAdjust="spacing" textLength="144" x="106.5" y="526.8311">provisioning_state</text><text fill="#D9B8FF" font-family="sans-serif" font-size="14" lengthAdjust="spacing" textLength="48" x="250.5" y="526.8311">: string</text></g><!--class resource--><g id="elem_resource"><rect codeLine="42" fill="#3D176E" height="310.7578" id="resource" rx="2.5" ry="2.5" style="stroke:#000D19;stroke-width:0.5;" width="227" x="89" y="7"/><ellipse cx="157.75" cy="26.8945" fill="#ADD1B2" rx="11" ry="11" style="stroke:#181818;stroke-width:1.0;"/><path d="M160.7188,32.5352 Q160.1406,32.832 159.5,32.9727 Q158.8594,33.1289 158.1563,33.1289 Q155.6563,33.1289 154.3281,31.4883 Q153.0156,29.832 153.0156,26.707 Q153.0156,23.582 154.3281,21.9258 Q155.6563,20.2695 158.1563,20.2695 Q158.8594,20.2695 159.5,20.4258 Q160.1563,20.582 160.7188,20.8789 L160.7188,23.5977 Q160.0938,23.0195 159.5,22.7539 Q158.9063,22.4727 158.2813,22.4727 Q156.9375,22.4727 156.25,23.5508 Q155.5625,24.6133 155.5625,26.707 Q155.5625,28.8008 156.25,29.8789 Q156.9375,30.9414 158.2813,30.9414 Q158.9063,30.9414 159.5,30.6758 Q160.0938,30.3945 160.7188,29.8164 L160.7188,32.5352 Z " fill="#000000"/><text fill="#D9B8FF" font-family="Helvetica" font-size="17" lengthAdjust="spacing" textLength="71" x="183.25" y="32.7798">resource</text><line style="stroke:#000D19;stroke-width:0.5;" x1="90" x2="315" y1="46.7891" y2="46.7891"/><text fill="#D9B8FF" font-family="sans-serif" font-size="14" font-weight="bold" lengthAdjust="spacing" textLength="29" x="100" y="68.7842">age</text><text fill="#D9B8FF" font-family="sans-serif" font-size="14" lengthAdjust="spacing" textLength="66" x="129" y="68.7842">: duration</text><text fill="#D9B8FF" font-family="sans-serif" font-size="14" font-weight="bold" lengthAdjust="spacing" textLength="43" x="100" y="95.0811">atime</text><text fill="#D9B8FF" font-family="sans-serif" font-size="14" lengthAdjust="spacing" textLength="70" x="143" y="95.0811">: datetime</text><text fill="#D9B8FF" font-family="sans-serif" font-size="14" font-weight="bold" lengthAdjust="spacing" textLength="43" x="100" y="121.3779">ctime</text><text fill="#D9B8FF" font-family="sans-serif" font-size="14" lengthAdjust="spacing" textLength="70" x="143" y="121.3779">: datetime</text><text fill="#D9B8FF" font-family="sans-serif" font-size="14" font-weight="bold" lengthAdjust="spacing" textLength="14" x="100" y="147.6748">id</text><text fill="#D9B8FF" font-family="sans-serif" font-size="14" lengthAdjust="spacing" textLength="48" x="114" y="147.6748">: string</text><text fill="#D9B8FF" font-family="sans-serif" font-size="14" font-weight="bold" lengthAdjust="spacing" textLength="33" x="100" y="173.9717">kind</text><text fill="#D9B8FF" font-family="sans-serif" font-size="14" lengthAdjust="spacing" textLength="48" x="133" y="173.9717">: string</text><text fill="#D9B8FF" font-family="sans-serif" font-size="14" font-weight="bold" lengthAdjust="spacing" textLength="90" x="100" y="200.2686">last_access</text><text fill="#D9B8FF" font-family="sans-serif" font-size="14" lengthAdjust="spacing" textLength="66" x="190" y="200.2686">: duration</text><text fill="#D9B8FF" font-family="sans-serif" font-size="14" font-weight="bold" lengthAdjust="spacing" textLength="90" x="100" y="226.5654">last_update</text><text fill="#D9B8FF" font-family="sans-serif" font-size="14" lengthAdjust="spacing" textLength="66" x="190" y="226.5654">: duration</text><text fill="#D9B8FF" font-family="sans-serif" font-size="14" font-weight="bold" lengthAdjust="spacing" textLength="48" x="100" y="252.8623">mtime</text><text fill="#D9B8FF" font-family="sans-serif" font-size="14" lengthAdjust="spacing" textLength="70" x="148" y="252.8623">: datetime</text><text fill="#D9B8FF" font-family="sans-serif" font-size="14" font-weight="bold" lengthAdjust="spacing" textLength="43" x="100" y="279.1592">name</text><text fill="#D9B8FF" font-family="sans-serif" font-size="14" lengthAdjust="spacing" textLength="48" x="143" y="279.1592">: string</text><text fill="#D9B8FF" font-family="sans-serif" font-size="14" font-weight="bold" lengthAdjust="spacing" textLength="34" x="100" y="305.4561">tags</text><text fill="#D9B8FF" font-family="sans-serif" font-size="14" lengthAdjust="spacing" textLength="171" x="134" y="305.4561">: dictionary[string, string]</text></g><!--link azure_sql_server_managed_instance_pool to azure_sku--><g id="link_azure_sql_server_managed_instance_pool_azure_sku"><path codeLine="54" d="M202.5,866.14 C202.5,885.75 202.5,900.14 202.5,919.29 " fill="none" id="azure_sql_server_managed_instance_pool-to-azure_sku" style="stroke:#FFAF37;stroke-width:2.0;"/><polygon fill="#FFAF37" points="202.5,925.29,206.5,916.29,202.5,920.29,198.5,916.29,202.5,925.29" style="stroke:#FFAF37;stroke-width:2.0;"/></g><!--reverse link microsoft_resource to azure_sql_server_managed_instance_pool--><g id="link_microsoft_resource_azure_sql_server_managed_instance_pool"><path codeLine="55" d="M202.5,557.51 C202.5,591.07 202.5,618.61 202.5,659.74 " fill="none" id="microsoft_resource-backto-azure_sql_server_managed_instance_pool" style="stroke:#FFAF37;stroke-width:2.0;"/><polygon fill="none" points="202.5,539.51,196.5,557.51,208.5,557.51,202.5,539.51" style="stroke:#FFAF37;stroke-width:2.0;"/></g><!--reverse link resource to microsoft_resource--><g id="link_resource_microsoft_resource"><path codeLine="56" d="M202.5,336.06 C202.5,379.65 202.5,405.98 202.5,438.42 " fill="none" id="resource-backto-microsoft_resource" style="stroke:#FFAF37;stroke-width:2.0;"/><polygon fill="none" points="202.5,318.06,196.5,336.06,208.5,336.06,202.5,318.06" style="stroke:#FFAF37;stroke-width:2.0;"/></g><!--SRC=[ZLHTRzD047pthpYfRn6M4WfDWn1IYOJWfKAKDuHEcxkrSufzP_RMgLBWltFdfCLdknzlzkpipiokvQtHAB1k-21gh3T8FlCxOniWgCKLaRjTkygHE2iAACwNm-8dP_bPmZNKA3vZjKSs2eQCxrkZTXQz5wzxfO-WTYMvrkhZU2QmFfJGSe-rhi3xAsOocvQnPqQlDfT5CMGEXvwTwyNo0aSqHnhfH9dFvtgn6bAUbNeozmFZnjoXMFINTkqOHpP74XthIPUHqJCv2dfVVzJZLz3Qs5AyxM7VZfx88YNupHQqkuti0YhVb_6CX8uF3Qv7gN1rgOlb9FdBO-HCnTK9k6i9fT-rudSscobeG1a-p6RlXB5yyIPW1TIcwX0VlWvR1iY6g0dWm_OJW0rI3_YRglsgf4VQ8yaQB9IefR6UmIgKZNDLPoL1ei4uxi5j85H6eVKeOyf4kt8As3YREcmt5baQdTeSzkwbSeJ-V_vxvxLHvBmhM8QoQqbXvn8PocH0GsvlV50Fhp8aO9nOGp8Yv8yKtLBdEY9iZllLeJq-nyjCO8CmuVef4BHOWbBXZp1Gw2fjeq_sUfLwGcTqxX3wED6es0Pq-76ilJfnVeQeBxnrdd_edNLYpU__v7d-mYyd6tIDnsN_0000]--></g></svg>

<svg xmlns="http://www.w3.org/2000/svg" width="405" height="1111" viewBox="0 0 405 1111"><rect width="131" height="179.273" x="137" y="925.71" fill="#3D176E" rx="2.5" ry="2.5" style="stroke:#000d19;stroke-width:.5"/><circle cx="154.25" cy="945.605" r="11" fill="#ADD1B2" style="stroke:#181818;stroke-width:1"/><path d="M157.219 951.245q-.578.297-1.219.438-.64.156-1.344.156-2.5 0-3.828-1.64-1.312-1.657-1.312-4.782t1.312-4.781q1.328-1.656 3.828-1.656.703 0 1.344.156.656.156 1.219.453v2.719q-.625-.578-1.219-.844-.594-.281-1.219-.281-1.344 0-2.031 1.078-.687 1.062-.687 3.156t.687 3.172q.688 1.062 2.031 1.062.625 0 1.219-.265.594-.281 1.219-.86z"/><text x="173.75" y="951.49" fill="#D9B8FF" font-family="Helvetica" font-size="17" textLength="84">azure_sku</text><path d="M138 965.499h129" style="stroke:#000d19;stroke-width:.5"/><text x="148" y="987.494" fill="#D9B8FF" font-family="sans-serif" font-size="14" font-weight="bold" textLength="65">capacity</text><text x="213" y="987.494" fill="#D9B8FF" font-family="sans-serif" font-size="14" textLength="44">: int64</text><text x="148" y="1013.791" fill="#D9B8FF" font-family="sans-serif" font-size="14" font-weight="bold" textLength="46">family</text><text x="194" y="1013.791" fill="#D9B8FF" font-family="sans-serif" font-size="14" textLength="48">: string</text><text x="148" y="1040.088" fill="#D9B8FF" font-family="sans-serif" font-size="14" font-weight="bold" textLength="43">name</text><text x="191" y="1040.088" fill="#D9B8FF" font-family="sans-serif" font-size="14" textLength="48">: string</text><text x="148" y="1066.385" fill="#D9B8FF" font-family="sans-serif" font-size="14" font-weight="bold" textLength="32">size</text><text x="180" y="1066.385" fill="#D9B8FF" font-family="sans-serif" font-size="14" textLength="48">: string</text><text x="148" y="1092.682" fill="#D9B8FF" font-family="sans-serif" font-size="14" font-weight="bold" textLength="27">tier</text><text x="175" y="1092.682" fill="#D9B8FF" font-family="sans-serif" font-size="14" textLength="48">: string</text><rect width="391" height="205.57" x="7" y="660.14" fill="#3D176E" rx="2.5" ry="2.5" style="stroke:#000d19;stroke-width:.5"/><circle cx="22" cy="680.034" r="11" fill="#ADD1B2" style="stroke:#181818;stroke-width:1"/><path d="M24.969 685.675q-.578.297-1.219.438-.64.156-1.344.156-2.5 0-3.828-1.64-1.312-1.657-1.312-4.782t1.312-4.781q1.328-1.657 3.828-1.657.703 0 1.344.157.656.156 1.219.453v2.719q-.625-.579-1.219-.844-.594-.281-1.219-.281-1.343 0-2.031 1.078-.687 1.062-.687 3.156t.687 3.172q.688 1.062 2.031 1.062.625 0 1.219-.265.594-.282 1.219-.86z"/><text x="41" y="685.92" fill="#D9B8FF" font-family="Helvetica" font-size="17" textLength="349">azure_sql_server_managed_instance_pool</text><path d="M8 699.929h389" style="stroke:#000d19;stroke-width:.5"/><text x="18" y="721.924" fill="#D9B8FF" font-family="sans-serif" font-size="14" font-weight="bold" textLength="143">instance_pool_sku</text><text x="161" y="721.924" fill="#D9B8FF" font-family="sans-serif" font-size="14" textLength="80">: azure_sku</text><text x="18" y="748.221" fill="#D9B8FF" font-family="sans-serif" font-size="14" font-weight="bold" textLength="98">license_type</text><text x="116" y="748.221" fill="#D9B8FF" font-family="sans-serif" font-size="14" textLength="48">: string</text><text x="18" y="774.518" fill="#D9B8FF" font-family="sans-serif" font-size="14" font-weight="bold" textLength="62">location</text><text x="80" y="774.518" fill="#D9B8FF" font-family="sans-serif" font-size="14" textLength="48">: string</text><text x="18" y="800.815" fill="#D9B8FF" font-family="sans-serif" font-size="14" font-weight="bold" textLength="76">subnet_id</text><text x="94" y="800.815" fill="#D9B8FF" font-family="sans-serif" font-size="14" textLength="48">: string</text><text x="18" y="827.112" fill="#D9B8FF" font-family="sans-serif" font-size="14" font-weight="bold" textLength="35">type</text><text x="53" y="827.112" fill="#D9B8FF" font-family="sans-serif" font-size="14" textLength="48">: string</text><text x="18" y="853.409" fill="#D9B8FF" font-family="sans-serif" font-size="14" font-weight="bold" textLength="61">v_cores</text><text x="79" y="853.409" fill="#D9B8FF" font-family="sans-serif" font-size="14" textLength="44">: int64</text><rect width="214" height="100.383" x="95.5" y="438.75" fill="#3D176E" rx="2.5" ry="2.5" style="stroke:#000d19;stroke-width:.5"/><circle cx="116.8" cy="458.644" r="11" fill="#ADD1B2" style="stroke:#181818;stroke-width:1"/><path d="M119.769 464.285q-.578.297-1.219.438-.64.156-1.344.156-2.5 0-3.828-1.64-1.312-1.657-1.312-4.782t1.312-4.781q1.328-1.656 3.828-1.656.703 0 1.344.156.656.156 1.219.453v2.719q-.625-.579-1.219-.844-.594-.281-1.219-.281-1.344 0-2.031 1.078-.687 1.062-.687 3.156t.687 3.172q.688 1.062 2.031 1.062.625 0 1.219-.265.594-.281 1.219-.86z"/><text x="137.2" y="464.53" fill="#D9B8FF" font-family="Helvetica" font-size="17" textLength="158">microsoft_resource</text><path d="M96.5 478.539h212" style="stroke:#000d19;stroke-width:.5"/><text x="106.5" y="500.534" fill="#D9B8FF" font-family="sans-serif" font-size="14" font-weight="bold" textLength="35">etag</text><text x="141.5" y="500.534" fill="#D9B8FF" font-family="sans-serif" font-size="14" textLength="48">: string</text><text x="106.5" y="526.831" fill="#D9B8FF" font-family="sans-serif" font-size="14" font-weight="bold" textLength="144">provisioning_state</text><text x="250.5" y="526.831" fill="#D9B8FF" font-family="sans-serif" font-size="14" textLength="48">: string</text><rect width="227" height="310.758" x="89" y="7" fill="#3D176E" rx="2.5" ry="2.5" style="stroke:#000d19;stroke-width:.5"/><circle cx="157.75" cy="26.895" r="11" fill="#ADD1B2" style="stroke:#181818;stroke-width:1"/><path d="M160.719 32.535q-.578.297-1.219.438-.64.156-1.344.156-2.5 0-3.828-1.64-1.312-1.657-1.312-4.782t1.312-4.781q1.328-1.656 3.828-1.656.703 0 1.344.156.656.156 1.219.453v2.719q-.625-.578-1.219-.844-.594-.281-1.219-.281-1.344 0-2.031 1.078-.687 1.062-.687 3.156t.687 3.172q.688 1.062 2.031 1.062.625 0 1.219-.265.594-.281 1.219-.86z"/><text x="183.25" y="32.78" fill="#D9B8FF" font-family="Helvetica" font-size="17" textLength="71">resource</text><path d="M90 46.789h225" style="stroke:#000d19;stroke-width:.5"/><text x="100" y="68.784" fill="#D9B8FF" font-family="sans-serif" font-size="14" font-weight="bold" textLength="29">age</text><text x="129" y="68.784" fill="#D9B8FF" font-family="sans-serif" font-size="14" textLength="66">: duration</text><text x="100" y="95.081" fill="#D9B8FF" font-family="sans-serif" font-size="14" font-weight="bold" textLength="43">atime</text><text x="143" y="95.081" fill="#D9B8FF" font-family="sans-serif" font-size="14" textLength="70">: datetime</text><text x="100" y="121.378" fill="#D9B8FF" font-family="sans-serif" font-size="14" font-weight="bold" textLength="43">ctime</text><text x="143" y="121.378" fill="#D9B8FF" font-family="sans-serif" font-size="14" textLength="70">: datetime</text><text x="100" y="147.675" fill="#D9B8FF" font-family="sans-serif" font-size="14" font-weight="bold" textLength="14">id</text><text x="114" y="147.675" fill="#D9B8FF" font-family="sans-serif" font-size="14" textLength="48">: string</text><text x="100" y="173.972" fill="#D9B8FF" font-family="sans-serif" font-size="14" font-weight="bold" textLength="33">kind</text><text x="133" y="173.972" fill="#D9B8FF" font-family="sans-serif" font-size="14" textLength="48">: string</text><text x="100" y="200.269" fill="#D9B8FF" font-family="sans-serif" font-size="14" font-weight="bold" textLength="90">last_access</text><text x="190" y="200.269" fill="#D9B8FF" font-family="sans-serif" font-size="14" textLength="66">: duration</text><text x="100" y="226.565" fill="#D9B8FF" font-family="sans-serif" font-size="14" font-weight="bold" textLength="90">last_update</text><text x="190" y="226.565" fill="#D9B8FF" font-family="sans-serif" font-size="14" textLength="66">: duration</text><text x="100" y="252.862" fill="#D9B8FF" font-family="sans-serif" font-size="14" font-weight="bold" textLength="48">mtime</text><text x="148" y="252.862" fill="#D9B8FF" font-family="sans-serif" font-size="14" textLength="70">: datetime</text><text x="100" y="279.159" fill="#D9B8FF" font-family="sans-serif" font-size="14" font-weight="bold" textLength="43">name</text><text x="143" y="279.159" fill="#D9B8FF" font-family="sans-serif" font-size="14" textLength="48">: string</text><text x="100" y="305.456" fill="#D9B8FF" font-family="sans-serif" font-size="14" font-weight="bold" textLength="34">tags</text><text x="134" y="305.456" fill="#D9B8FF" font-family="sans-serif" font-size="14" textLength="171">: dictionary[string, string]</text><path fill="none" d="M202.5 866.14v53.15" style="stroke:#ffaf37;stroke-width:2"/><path fill="#FFAF37" d="m202.5 925.29 4-9-4 4-4-4z" style="stroke:#ffaf37;stroke-width:2"/><path fill="none" d="M202.5 557.51v102.23m0-120.23-6 18h12zm0-203.45v102.36m0-120.36-6 18h12z" style="stroke:#ffaf37;stroke-width:2"/></svg>
